X: 28444
T: Mullingar Races, The
R: reel
M: 4/4
K: Dmajor
FE|:DEFD EA A2|DEFA Bcde|faec d2cA|BdAF EGFE|
DEFD EA A2|DEFA Bcde|faec dBAG|1 FGEF D2 FE:|2 FGEF D2 Ac||
|:d2fd adfd|afdf edBA|d2fd adfd|Beef edBA|
d2fd adfb|afdf edBA|dgfe dBAG|FGEF D2 Ac:|

